!!!COM: Johannes Brahms
!!!CNT: Deutscher
!!!TXO: Deutsche
!!!OTL: Mein wunders Herz verlangt
!!!OPS: Op. 59
!!!ONM: No. 7
!!!LYR: Claus Groth
!!!ONB: Original key: e minor
!!!ENC: Ayako Kataoka        
!!!EED: Leigh VanHandel
!!!YOR: C.F. Peters, Brahms Lieder fu2r eine Singstimme mit Klavierbegleitung, Band III, ausgabe fu2r tiefere Stimme
!!!ODT: 1873/
!!NB: Vocal melody and text only encoded.
**kern	**silbe
*clefG2	*
*k[f#c#g#d#]	*
*M4/4	*
*MM[allegro]	*
!! tempo indication: bewegt
=5	=5
4r	.
{4g#	{Mein
4e	wun-
4d#	-des
=6	=6
4c#	Herz
4g#	ver-
4ee	-langt
4cc#	nach
=7	=7
2.b	mil-
4a	-der
=8	=8
2g#}	Ruh,}
4r	.
{4g#	{o
=9	=9
2.a#	hau-
4a#	-che
=10	=10
2.b#	sie
4cc#	ihm
=11	=11
2.dd#}	ein!}
4r	.
=13	=13
4r	.
{4d#	{Es
4f#	fliegt
4g#	dir
=14	=14
4a	wei-
4d#	-nend,
[2a	ban-
=15	=15
4a]	|
4a#	-ge
4b	schla-
4cc#	-gend
=16	=16
(4cc#	zu,
4b)}	|}
4r	.
{4an	{o
=17	=17
4.g#	hu2l-
8g#	-le
4cc#	du
4a#	es
=18	=18
2b}	ein,}
4r	.
{4an	{o
=19	=19
2.g#	hu2l-
4g#	-le
=20	=20
2.cc#	du
4d#	es
=21	=21
4e}	ein!}
4r	.
2r	.
=25	=25
4r	.
{4g#	{Wie
4e	wenn
4d#	ein
=26	=26
4c#	Strahl
4g#	durch
4ee	schwe-
4cc#	-re
=27	=27
2.b	Wol-
4a	-ken
=28	=28
2g#}	bricht,}
4r	.
{4g#	{so
=29	=29
2.a#	win-
4a#	-kest
=30	=30
2.b#	du
4cc#	ihm
=31	=31
2.dd#}	zu:}
4r	.
=32	=32
*k[b-e-a-d-g-]	*
1r	.
=33	=33
4r	.
{4b-	{O
4g-	la2ch-
4f	-le
=34	=34
4e-}	fort}
4r	.
4r	.
{4dd-	{mit
=35	=35
4dd-	dei-
4b-	-nem
4g-	mil-
4f	-den
=36	=36
4e-}	Licht,}
4r	.
4r	.
{4dd-	{mit
=37	=37
(4b-	dei-
4a-)	|
(4gn	-nem
4b-)	|
=38	=38
(4ee-	mil-
4dd-)	|
(4cc	-den
4b-)	|
=39	=39
2a-}	Licht!}
4r	.
{4an	{Mein
=40	=40
4.b-	Pol,
8b-	mein
4ee-	Stern
4cc	bist
=41	=41
(4dd-	du,
4a-)}	|}
4r	.
{4an	{mein
=42	=42
(4cc	Pol,
4b-)}	|}
4r	.
{4cc	{mein
=43	=43
(2ee-	Stern,
4dd-)}	|}
4r	.
=44	=44
2r	.
{2a-	{mein
=45	=45
2f	Stern
2e-	bist
=46	=46
2d-}	du!}
2r	.
*-	*-
